X: 1
T: Dinky One-Step
P: I(ABACDC')nA
M: 6/8
L: 1/8
K: G
%%indent 400
"Intro"\
| "D7"d3 zdd | d3 zdd | ddd ddd | d3 z ||
"A"\
|: Bc \
| "G"kd3 "C"ke3 | "G"d3 zGA | "G"kB3 "C"kc3 | "G"B3 zAG \
| "D"kA3 "B7"kB3 |1 "Em"G3 zFG | "A7"A2A ABA | "D"d3 z \
                :|2 "Em"G3 z"A7"FE | "D7"DED B2A | "G" G3 "fine"z |] G^G |
"B"\
|:"D7"A2^G A2G | B2A FED | "G"B2^A B2A | B2G FED \
| "D7"c2B c2A | "G"d2c d2e | "D"fed "A7"ed^c |1 "D"dDE FG^G :|2 "D"d3 "d.C."zy |]
K: C
"C"\
[|"C"E3 z^DE | "G7"F3 D3 | F3 zEF | "C"G3 E3 \
| "C"G2c B2A | "G7"B2F F3 | F2B A2G | "C"A2E E3 \
||"C"E3 z^DE | "G7"F3 D3 | F3 zEF | "C"G3 E3 |
| "C"G3c B2A | "G"B2D D2B | "D7"A2D D2A |1 "G"G3 "G7"zF=F :|2 "G"GDE FGA |]\
"D"\
[|"G7"B3 B3 | B3 zAG | "C"A3 A3 | A3 z2E |
| "C"E2F "(A7)"GFE | "Dm"F2E F3 | "D7"^F2G AGF | "G"Ged cBA \
| "G7"B3 B3 | B3 zAG | "C"A3 A3 | A3 zCD |
| "C"E2^F "A7"GFE | "G"DGB "B7"d2^d \
| "Am"ecA "D7"FDA | "G"G2z G^F=F |] \
"C'"\
[|"C"E3 z^DE | "G7"F3 D3 | F3 zEF | "C"G3 E3 \
| "C"G2c B2A | "G7"B2F F3 |
| F2B A2G | "C"A2E E3 \
| "C"E3 z^DE | "G7"F3 D3 | F3 zEF | "C"G3 E3 \
| "C7"G2^F G2^G | "F"A2D DDE | "G7"FG^G A^AB | "C"c2c "d.C."cy |]
